images/6438237.svg

<?xml version="1.0" encoding="UTF-8"?>
<svg xmlns="http://www.w3.org/2000/svg" xmlns:xlink="http://www.w3.org/1999/xlink" width="300pt" height="300pt" viewBox="0 0 300 300" version="1.1">
<defs>
<g>
<symbol overflow="visible" id="glyph0-0">
<path style="stroke:none;" d="M 0.796875 2.828125 L 0.796875 -11.28125 L 8.796875 -11.28125 L 8.796875 2.828125 Z M 1.703125 1.9375 L 7.90625 1.9375 L 7.90625 -10.390625 L 1.703125 -10.390625 Z M 1.703125 1.9375 "/>
</symbol>
<symbol overflow="visible" id="glyph0-1">
<path style="stroke:none;" d="M 6.3125 -10.59375 C 5.164062 -10.59375 4.253906 -10.164062 3.578125 -9.3125 C 2.898438 -8.457031 2.5625 -7.296875 2.5625 -5.828125 C 2.5625 -4.359375 2.898438 -3.195312 3.578125 -2.34375 C 4.253906 -1.488281 5.164062 -1.0625 6.3125 -1.0625 C 7.457031 -1.0625 8.363281 -1.488281 9.03125 -2.34375 C 9.695312 -3.195312 10.03125 -4.359375 10.03125 -5.828125 C 10.03125 -7.296875 9.695312 -8.457031 9.03125 -9.3125 C 8.363281 -10.164062 7.457031 -10.59375 6.3125 -10.59375 Z M 6.3125 -11.875 C 7.945312 -11.875 9.253906 -11.328125 10.234375 -10.234375 C 11.210938 -9.140625 11.703125 -7.671875 11.703125 -5.828125 C 11.703125 -3.984375 11.210938 -2.507812 10.234375 -1.40625 C 9.253906 -0.3125 7.945312 0.234375 6.3125 0.234375 C 4.664062 0.234375 3.351562 -0.3125 2.375 -1.40625 C 1.394531 -2.507812 0.90625 -3.984375 0.90625 -5.828125 C 0.90625 -7.671875 1.394531 -9.140625 2.375 -10.234375 C 3.351562 -11.328125 4.664062 -11.875 6.3125 -11.875 Z M 6.3125 -11.875 "/>
</symbol>
<symbol overflow="visible" id="glyph0-2">
<path style="stroke:none;" d="M 1.578125 -11.671875 L 3.703125 -11.671875 L 8.875 -1.90625 L 8.875 -11.671875 L 10.40625 -11.671875 L 10.40625 0 L 8.28125 0 L 3.109375 -9.765625 L 3.109375 0 L 1.578125 0 Z M 1.578125 -11.671875 "/>
</symbol>
<symbol overflow="visible" id="glyph0-3">
<path style="stroke:none;" d="M 1.578125 -11.671875 L 3.15625 -11.671875 L 3.15625 -6.890625 L 8.890625 -6.890625 L 8.890625 -11.671875 L 10.46875 -11.671875 L 10.46875 0 L 8.890625 0 L 8.890625 -5.5625 L 3.15625 -5.5625 L 3.15625 0 L 1.578125 0 Z M 1.578125 -11.671875 "/>
</symbol>
</g>
</defs>
<g id="surface37581">
<rect x="0" y="0" width="300" height="300" style="fill:rgb(100%,100%,100%);fill-opacity:1;stroke:none;"/>
<path style="fill:none;stroke-width:1.2;stroke-linecap:butt;stroke-linejoin:miter;stroke:rgb(0%,0%,0%);stroke-opacity:1;stroke-miterlimit:10;" d="M 250.433594 59.761719 L 212.183594 60.128906 "/>
<path style="fill:none;stroke-width:1.2;stroke-linecap:butt;stroke-linejoin:miter;stroke:rgb(0%,0%,0%);stroke-opacity:1;stroke-miterlimit:10;" d="M 212.183594 60.128906 L 193.378906 93.4375 "/>
<path style="fill:none;stroke-width:1.2;stroke-linecap:butt;stroke-linejoin:miter;stroke:rgb(0%,0%,0%);stroke-opacity:1;stroke-miterlimit:10;" d="M 202.46875 59.035156 L 187.421875 85.679688 "/>
<path style="fill:none;stroke-width:1.2;stroke-linecap:butt;stroke-linejoin:miter;stroke:rgb(0%,0%,0%);stroke-opacity:1;stroke-miterlimit:10;" d="M 193.378906 93.4375 L 220.683594 120.222656 "/>
<path style="fill:none;stroke-width:1.2;stroke-linecap:butt;stroke-linejoin:miter;stroke:rgb(0%,0%,0%);stroke-opacity:1;stroke-miterlimit:10;" d="M 193.378906 93.4375 L 156.339844 83.890625 "/>
<path style="fill:none;stroke-width:1.2;stroke-linecap:butt;stroke-linejoin:miter;stroke:rgb(0%,0%,0%);stroke-opacity:1;stroke-miterlimit:10;" d="M 220.683594 120.222656 L 230.9375 157.070312 "/>
<path style="fill:none;stroke-width:1.2;stroke-linecap:butt;stroke-linejoin:miter;stroke:rgb(0%,0%,0%);stroke-opacity:1;stroke-miterlimit:10;" d="M 230.980469 161.570312 L 269.226562 161.207031 "/>
<path style="fill:none;stroke-width:1.2;stroke-linecap:butt;stroke-linejoin:miter;stroke:rgb(0%,0%,0%);stroke-opacity:1;stroke-miterlimit:10;" d="M 230.894531 152.574219 L 269.140625 152.207031 "/>
<path style="fill:none;stroke-width:1.2;stroke-linecap:butt;stroke-linejoin:miter;stroke:rgb(0%,0%,0%);stroke-opacity:1;stroke-miterlimit:10;" d="M 230.9375 157.070312 L 221.390625 194.113281 "/>
<path style="fill:none;stroke-width:1.2;stroke-linecap:butt;stroke-linejoin:miter;stroke:rgb(0%,0%,0%);stroke-opacity:1;stroke-miterlimit:10;" d="M 221.390625 194.113281 L 194.605469 221.417969 "/>
<path style=" stroke:none;fill-rule:nonzero;fill:rgb(0%,0%,0%);fill-opacity:1;" d="M 221.390625 194.113281 L 260.113281 197.132812 L 258.808594 183.695312 Z M 221.390625 194.113281 "/>
<path style="fill:none;stroke-width:1.2;stroke-linecap:butt;stroke-linejoin:miter;stroke:rgb(0%,0%,0%);stroke-opacity:1;stroke-miterlimit:10;" d="M 221.390625 194.113281 L 229.640625 211.367188 "/>
<path style="fill:none;stroke-width:1.2;stroke-linecap:butt;stroke-linejoin:miter;stroke:rgb(100%,0%,0%);stroke-opacity:1;stroke-miterlimit:10;" d="M 229.640625 211.367188 L 237.886719 228.621094 "/>
<path style="fill:none;stroke-width:1.2;stroke-linecap:butt;stroke-linejoin:miter;stroke:rgb(0%,0%,0%);stroke-opacity:1;stroke-miterlimit:10;" d="M 190.730469 223.703125 L 200.449219 240.175781 "/>
<path style="fill:none;stroke-width:1.2;stroke-linecap:butt;stroke-linejoin:miter;stroke:rgb(100%,0%,0%);stroke-opacity:1;stroke-miterlimit:10;" d="M 200.449219 240.175781 L 210.171875 256.644531 "/>
<path style="fill:none;stroke-width:1.2;stroke-linecap:butt;stroke-linejoin:miter;stroke:rgb(0%,0%,0%);stroke-opacity:1;stroke-miterlimit:10;" d="M 198.480469 219.128906 L 208.203125 235.601562 "/>
<path style="fill:none;stroke-width:1.2;stroke-linecap:butt;stroke-linejoin:miter;stroke:rgb(100%,0%,0%);stroke-opacity:1;stroke-miterlimit:10;" d="M 208.203125 235.601562 L 217.921875 252.070312 "/>
<path style="fill:none;stroke-width:1.2;stroke-linecap:butt;stroke-linejoin:miter;stroke:rgb(0%,0%,0%);stroke-opacity:1;stroke-miterlimit:10;" d="M 194.605469 221.417969 L 176.179688 226.542969 "/>
<path style="fill:none;stroke-width:1.2;stroke-linecap:butt;stroke-linejoin:miter;stroke:rgb(100%,0%,0%);stroke-opacity:1;stroke-miterlimit:10;" d="M 176.179688 226.542969 L 157.753906 231.671875 "/>
<path style=" stroke:none;fill-rule:nonzero;fill:rgb(100%,100%,100%);fill-opacity:1;" d="M 208.046875 244.859375 L 221.046875 244.859375 L 221.046875 263.859375 L 208.046875 263.859375 Z M 208.046875 244.859375 "/>
<g style="fill:rgb(100%,0%,0%);fill-opacity:1;">
  <use xlink:href="#glyph0-1" x="208.046875" y="259.710938"/>
</g>
<path style="fill:none;stroke-width:1.2;stroke-linecap:butt;stroke-linejoin:miter;stroke:rgb(100%,0%,0%);stroke-opacity:1;stroke-miterlimit:10;" d="M 157.753906 231.671875 L 139.234375 226.898438 "/>
<path style="fill:none;stroke-width:1.2;stroke-linecap:butt;stroke-linejoin:miter;stroke:rgb(0%,0%,0%);stroke-opacity:1;stroke-miterlimit:10;" d="M 139.234375 226.898438 L 120.714844 222.125 "/>
<path style=" stroke:none;fill-rule:nonzero;fill:rgb(100%,100%,100%);fill-opacity:1;" d="M 151.753906 222.171875 L 164.753906 222.171875 L 164.753906 241.171875 L 151.753906 241.171875 Z M 151.753906 222.171875 "/>
<g style="fill:rgb(100%,0%,0%);fill-opacity:1;">
  <use xlink:href="#glyph0-1" x="151.753906" y="237.023438"/>
</g>
<path style="fill:none;stroke-width:1.2;stroke-linecap:butt;stroke-linejoin:miter;stroke:rgb(0%,0%,0%);stroke-opacity:1;stroke-miterlimit:10;" d="M 120.714844 222.125 L 93.410156 195.339844 "/>
<path style="fill:none;stroke-width:1.2;stroke-linecap:butt;stroke-linejoin:miter;stroke:rgb(0%,0%,0%);stroke-opacity:1;stroke-miterlimit:10;" d="M 93.410156 195.339844 L 61.53125 216.476562 "/>
<path style="fill:none;stroke-width:1.2;stroke-linecap:butt;stroke-linejoin:miter;stroke:rgb(0%,0%,0%);stroke-opacity:1;stroke-miterlimit:10;" d="M 85.25 189.953125 L 59.746094 206.863281 "/>
<path style="fill:none;stroke-width:1.2;stroke-linecap:butt;stroke-linejoin:miter;stroke:rgb(0%,0%,0%);stroke-opacity:1;stroke-miterlimit:10;" d="M 83.15625 158.488281 L 93.410156 195.339844 "/>
<path style="fill:none;stroke-width:1.2;stroke-linecap:butt;stroke-linejoin:miter;stroke:rgb(0%,0%,0%);stroke-opacity:1;stroke-miterlimit:10;" d="M 61.53125 216.476562 L 31.578125 192.691406 "/>
<path style="fill:none;stroke-width:1.2;stroke-linecap:butt;stroke-linejoin:miter;stroke:rgb(0%,0%,0%);stroke-opacity:1;stroke-miterlimit:10;" d="M 31.578125 192.691406 L 38.257812 174.773438 "/>
<path style="fill:none;stroke-width:1.2;stroke-linecap:butt;stroke-linejoin:miter;stroke:rgb(0%,0%,100%);stroke-opacity:1;stroke-miterlimit:10;" d="M 38.257812 174.773438 L 44.941406 156.851562 "/>
<path style=" stroke:none;fill-rule:nonzero;fill:rgb(0%,0%,0%);fill-opacity:1;" d="M 83.15625 158.488281 L 45.230469 150.109375 L 44.652344 163.597656 Z M 83.15625 158.488281 "/>
<path style="fill:none;stroke-width:1.2;stroke-linecap:butt;stroke-linejoin:miter;stroke:rgb(0%,0%,0%);stroke-opacity:1;stroke-miterlimit:10;" d="M 30.816406 122.042969 L 37.878906 139.449219 "/>
<path style="fill:none;stroke-width:1.2;stroke-linecap:butt;stroke-linejoin:miter;stroke:rgb(0%,0%,100%);stroke-opacity:1;stroke-miterlimit:10;" d="M 37.878906 139.449219 L 44.941406 156.851562 "/>
<path style=" stroke:none;fill-rule:nonzero;fill:rgb(100%,100%,100%);fill-opacity:1;" d="M 38.941406 147.351562 L 50.941406 147.351562 L 50.941406 166.351562 L 38.941406 166.351562 Z M 38.941406 147.351562 "/>
<g style="fill:rgb(0%,0%,100%);fill-opacity:1;">
  <use xlink:href="#glyph0-2" x="38.941406" y="162.203125"/>
</g>
<path style="fill:none;stroke-width:1.2;stroke-linecap:butt;stroke-linejoin:miter;stroke:rgb(0%,0%,0%);stroke-opacity:1;stroke-miterlimit:10;" d="M 83.15625 158.488281 L 92.703125 121.449219 "/>
<path style=" stroke:none;fill-rule:nonzero;fill:rgb(0%,0%,0%);fill-opacity:1;" d="M 92.703125 121.449219 L 65.457031 93.765625 L 57.628906 104.761719 Z M 92.703125 121.449219 "/>
<path style="fill:none;stroke-width:1.2;stroke-linecap:butt;stroke-linejoin:miter;stroke:rgb(0%,0%,0%);stroke-opacity:1;stroke-miterlimit:10;" d="M 92.703125 121.449219 L 106.09375 107.796875 "/>
<path style="fill:none;stroke-width:1.2;stroke-linecap:butt;stroke-linejoin:miter;stroke:rgb(100%,0%,0%);stroke-opacity:1;stroke-miterlimit:10;" d="M 106.09375 107.796875 L 119.488281 94.144531 "/>
<path style="fill:none;stroke-width:1.2;stroke-linecap:butt;stroke-linejoin:miter;stroke:rgb(0%,0%,0%);stroke-opacity:1;stroke-miterlimit:10;" d="M 61.542969 99.265625 L 30.816406 122.042969 "/>
<path style="fill:none;stroke-width:1.2;stroke-linecap:butt;stroke-linejoin:miter;stroke:rgb(100%,0%,0%);stroke-opacity:1;stroke-miterlimit:10;" d="M 119.488281 94.144531 L 137.914062 89.015625 "/>
<path style="fill:none;stroke-width:1.2;stroke-linecap:butt;stroke-linejoin:miter;stroke:rgb(0%,0%,0%);stroke-opacity:1;stroke-miterlimit:10;" d="M 137.914062 89.015625 L 156.339844 83.890625 "/>
<path style=" stroke:none;fill-rule:nonzero;fill:rgb(100%,100%,100%);fill-opacity:1;" d="M 113.488281 84.644531 L 126.488281 84.644531 L 126.488281 103.644531 L 113.488281 103.644531 Z M 113.488281 84.644531 "/>
<g style="fill:rgb(100%,0%,0%);fill-opacity:1;">
  <use xlink:href="#glyph0-1" x="113.488281" y="99.496094"/>
</g>
<path style="fill:none;stroke-width:1.2;stroke-linecap:butt;stroke-linejoin:miter;stroke:rgb(0%,0%,0%);stroke-opacity:1;stroke-miterlimit:10;" d="M 160.839844 83.847656 L 160.65625 64.722656 "/>
<path style="fill:none;stroke-width:1.2;stroke-linecap:butt;stroke-linejoin:miter;stroke:rgb(100%,0%,0%);stroke-opacity:1;stroke-miterlimit:10;" d="M 160.65625 64.722656 L 160.472656 45.597656 "/>
<path style="fill:none;stroke-width:1.2;stroke-linecap:butt;stroke-linejoin:miter;stroke:rgb(0%,0%,0%);stroke-opacity:1;stroke-miterlimit:10;" d="M 151.839844 83.933594 L 151.65625 64.808594 "/>
<path style="fill:none;stroke-width:1.2;stroke-linecap:butt;stroke-linejoin:miter;stroke:rgb(100%,0%,0%);stroke-opacity:1;stroke-miterlimit:10;" d="M 151.65625 64.808594 L 151.472656 45.6875 "/>
<path style=" stroke:none;fill-rule:nonzero;fill:rgb(100%,100%,100%);fill-opacity:1;" d="M 149.972656 36.140625 L 162.972656 36.140625 L 162.972656 55.140625 L 149.972656 55.140625 Z M 149.972656 36.140625 "/>
<g style="fill:rgb(100%,0%,0%);fill-opacity:1;">
  <use xlink:href="#glyph0-1" x="149.972656" y="50.992188"/>
</g>
<path style=" stroke:none;fill-rule:nonzero;fill:rgb(100%,100%,100%);fill-opacity:1;" d="M 225.886719 219.121094 L 250.886719 219.121094 L 250.886719 238.121094 L 225.886719 238.121094 Z M 225.886719 219.121094 "/>
<g style="fill:rgb(100%,0%,0%);fill-opacity:1;">
  <use xlink:href="#glyph0-1" x="225.886719" y="233.972656"/>
  <use xlink:href="#glyph0-3" x="238.480469" y="233.972656"/>
</g>
</g>
</svg>

<svg xmlns="http://www.w3.org/2000/svg" xmlns:xlink="http://www.w3.org/1999/xlink" width="300pt" height="300pt" viewBox="0 0 300 300"><defs><symbol overflow="visible"><path d="M.797 2.828v-14.11h8V2.83zm.906-.89h6.203v-12.33H1.703zm0 0"/></symbol><symbol overflow="visible" id="a"><path d="M6.313-10.594c-1.15 0-2.06.43-2.735 1.28-.68.857-1.015 2.017-1.015 3.486 0 1.47.335 2.633 1.015 3.484.676.856 1.586 1.28 2.735 1.28 1.144.002 2.05-.424 2.718-1.28.665-.85 1-2.015 1-3.484 0-1.47-.335-2.63-1-3.484-.667-.852-1.573-1.282-2.717-1.282zm0-1.28c1.632 0 2.94.546 3.92 1.64.978 1.093 1.47 2.562 1.47 4.406 0 1.844-.492 3.32-1.47 4.422-.98 1.093-2.288 1.64-3.92 1.64-1.65 0-2.96-.546-3.938-1.64-.98-1.102-1.47-2.578-1.47-4.422 0-1.844.49-3.313 1.47-4.406.977-1.094 2.29-1.64 3.938-1.64zm0 0"/></symbol><symbol overflow="visible" id="b"><path d="M1.578-11.672h2.125l5.172 9.766v-9.766h1.53V0H8.282L3.11-9.766V0H1.577zm0 0"/></symbol><symbol overflow="visible" id="c"><path d="M1.578-11.672h1.578v4.78H8.89v-4.78h1.58V0H8.89v-5.563H3.157V0H1.578zm0 0"/></symbol></defs><g><path fill="#fff" d="M0 0h300v300H0z"/><path d="M250.434 59.762l-38.25.367M212.184 60.13L193.38 93.436M202.47 59.035L187.42 85.68M193.38 93.438l27.304 26.785M193.38 93.438l-37.04-9.547M220.684 120.223l10.254 36.847M230.98 161.57l38.247-.363M230.895 152.574l38.246-.367M230.938 157.07l-9.547 37.043M221.39 194.113l-26.785 27.305" stroke-width="1.2" stroke="#000" stroke-miterlimit="10" fill="none"/><path d="M221.39 194.113l38.723 3.02-1.304-13.438zm0 0"/><path d="M221.39 194.113l8.25 17.254" stroke-width="1.2" stroke="#000" stroke-miterlimit="10" fill="none"/><path d="M229.64 211.367l8.247 17.254" stroke-width="1.2" stroke="#f00" stroke-miterlimit="10" fill="none"/><path d="M190.73 223.703l9.72 16.473" stroke-width="1.2" stroke="#000" stroke-miterlimit="10" fill="none"/><path d="M200.45 240.176l9.722 16.47" stroke-width="1.2" stroke="#f00" stroke-miterlimit="10" fill="none"/><path d="M198.48 219.13l9.723 16.472" stroke-width="1.2" stroke="#000" stroke-miterlimit="10" fill="none"/><path d="M208.203 235.602l9.72 16.468" stroke-width="1.2" stroke="#f00" stroke-miterlimit="10" fill="none"/><path d="M194.605 221.418l-18.425 5.125" stroke-width="1.2" stroke="#000" stroke-miterlimit="10" fill="none"/><path d="M176.18 226.543l-18.426 5.13" stroke-width="1.2" stroke="#f00" stroke-miterlimit="10" fill="none"/><path d="M208.047 244.86h13v19h-13zm0 0" fill="#fff"/><use xlink:href="#a" x="208.047" y="259.711" fill="#f00"/><path d="M157.754 231.672l-18.52-4.774" stroke-width="1.2" stroke="#f00" stroke-miterlimit="10" fill="none"/><path d="M139.234 226.898l-18.52-4.773" stroke-width="1.2" stroke="#000" stroke-miterlimit="10" fill="none"/><path d="M151.754 222.172h13v19h-13zm0 0" fill="#fff"/><use xlink:href="#a" x="151.754" y="237.023" fill="#f00"/><path d="M120.715 222.125L93.41 195.34M93.41 195.34l-31.88 21.137M85.25 189.953l-25.504 16.91M83.156 158.488L93.41 195.34M61.53 216.477L31.58 192.69M31.578 192.69l6.68-17.917" stroke-width="1.2" stroke="#000" stroke-miterlimit="10" fill="none"/><path d="M38.258 174.773l6.683-17.92" stroke-width="1.2" stroke="#00f" stroke-miterlimit="10" fill="none"/><path d="M83.156 158.488l-37.926-8.38-.578 13.49zm0 0"/><path d="M30.816 122.043l7.063 17.406" stroke-width="1.2" stroke="#000" stroke-miterlimit="10" fill="none"/><path d="M37.88 139.45l7.06 17.402" stroke-width="1.2" stroke="#00f" stroke-miterlimit="10" fill="none"/><path d="M38.94 147.352h12v19h-12zm0 0" fill="#fff"/><use xlink:href="#b" x="38.941" y="162.203" fill="#00f"/><path d="M83.156 158.488l9.547-37.04" stroke-width="1.2" stroke="#000" stroke-miterlimit="10" fill="none"/><path d="M92.703 121.45L65.457 93.765l-7.828 10.996zm0 0"/><path d="M92.703 121.45l13.39-13.653" stroke-width="1.2" stroke="#000" stroke-miterlimit="10" fill="none"/><path d="M106.094 107.797l13.394-13.652" stroke-width="1.2" stroke="#f00" stroke-miterlimit="10" fill="none"/><path d="M61.543 99.266l-30.727 22.777" stroke-width="1.2" stroke="#000" stroke-miterlimit="10" fill="none"/><path d="M119.488 94.145l18.426-5.13" stroke-width="1.2" stroke="#f00" stroke-miterlimit="10" fill="none"/><path d="M137.914 89.016l18.426-5.125" stroke-width="1.2" stroke="#000" stroke-miterlimit="10" fill="none"/><path d="M113.488 84.645h13v19h-13zm0 0" fill="#fff"/><use xlink:href="#a" x="113.488" y="99.496" fill="#f00"/><path d="M160.84 83.848l-.184-19.125" stroke-width="1.2" stroke="#000" stroke-miterlimit="10" fill="none"/><path d="M160.656 64.723l-.183-19.125" stroke-width="1.2" stroke="#f00" stroke-miterlimit="10" fill="none"/><path d="M151.84 83.934l-.184-19.125" stroke-width="1.2" stroke="#000" stroke-miterlimit="10" fill="none"/><path d="M151.656 64.81l-.183-19.123" stroke-width="1.2" stroke="#f00" stroke-miterlimit="10" fill="none"/><path d="M149.973 36.14h13v19h-13zm0 0" fill="#fff"/><use xlink:href="#a" x="149.973" y="50.992" fill="#f00"/><path d="M225.887 219.12h25v19h-25zm0 0" fill="#fff"/><g fill="#f00"><use xlink:href="#a" x="225.887" y="233.973"/><use xlink:href="#c" x="238.48" y="233.973"/></g></g></svg>
